src/symbolic/apps/preferences-desktop-locale-symbolic.svg

<svg xmlns="http://www.w3.org/2000/svg" width="16" height="16"><path d="M2 5C0 5 0 7 0 7v7c0 1.97 2 2 2 2h9v-4H8.44c-.01.14-.03.3-.03.43h.43v.5h-.5c-.08.7-.36 1.07-.84 1.07-.12 0-.31-.02-.53-.07l-.09-.5c.26.05.48.07.62.07s.21-.2.25-.57H5.41c.04-.29.06-.62.09-.93h-.69c-.23.66-.52 1.34-.9 1.97l-.5-.41c.32-.51.58-1.03.81-1.56H4V9.59c-.02-.01-.04-.04-.06-.07L4 9.47V7.68c-.02-.02-.04-.05-.06-.06L4 7.56V5zm.09 2.72h1.6v4.78h-.53v-.53h-.54v.78h-.53zm.53.53v3.22h.54V8.25zM6.09 12c-.02.13-.04.3-.06.43h1.78c.02-.15.02-.29.03-.43h-.47l-.21.27c-.1-.1-.21-.17-.32-.27z" opacity=".3" fill="#444"/><path d="M5 0v11h9s2 0 2-2V2s0-2-2-2zm4.56 2h1.88l2.18 7h-1.65l-.44-1.66H9.41L8.97 9h-1.6zm.88 1.18c-.17.74-.34 1.58-.53 2.29l-.19.62h1.5l-.16-.62c-.19-.71-.41-1.56-.59-2.29z" fill="#444"/></svg>

<svg xmlns="http://www.w3.org/2000/svg" width="16" height="16" version="1.1">
 <path style="opacity:0.3;fill:#444444" d="M 2,5 C 0,5 0,7 0,7 V 14 C 0,15.97 2,16 2,16 H 10 11 V 12 H 8.44 C 8.43,12.14 8.41,12.3 8.41,12.43 H 8.84 V 12.93 H 8.34 C 8.26,13.63 7.98,14 7.5,14 7.38,14 7.19,13.98 6.97,13.93 L 6.88,13.43 C 7.14,13.48 7.36,13.5 7.5,13.5 7.64,13.5 7.71,13.3 7.75,12.93 H 5.41 C 5.45,12.64 5.47,12.31 5.5,12 H 5 4.81 C 4.58,12.66 4.29,13.34 3.91,13.97 L 3.41,13.56 C 3.73,13.05 3.99,12.53 4.22,12 H 4 V 11 9.59 C 3.98,9.58 3.96,9.55 3.94,9.52 L 4,9.47 V 7.68 C 3.98,7.66 3.96,7.63 3.94,7.62 L 4,7.56 V 5 Z M 2.09,7.72 H 3.69 V 12.5 H 3.16 V 11.97 H 2.62 V 12.75 H 2.09 Z M 2.62,8.25 V 11.47 H 3.16 V 8.25 Z M 6.09,12 C 6.07,12.13 6.05,12.3 6.03,12.43 H 7.81 C 7.83,12.28 7.83,12.14 7.84,12 H 7.37 L 7.16,12.27 C 7.06,12.17 6.95,12.1 6.84,12 Z"/>
 <path style="fill:#444444" d="M 5,0 V 11 H 6 14 C 14,11 16,11 16,9 V 2 C 16,2 16,0 14,0 Z M 9.56,2 H 11.44 L 13.62,9 H 11.97 L 11.53,7.34 H 9.41 L 8.97,9 H 7.37 Z M 10.44,3.18 C 10.27,3.92 10.1,4.76 9.91,5.47 L 9.72,6.09 H 11.22 L 11.06,5.47 C 10.87,4.76 10.65,3.91 10.47,3.18 Z"/>
</svg>
